svg/l/TZ.svg

<svg width="32" height="24" viewBox="0 0 32 24" fill="none" xmlns="http://www.w3.org/2000/svg">
<g clip-path="url(#clip0_270_67545)">
<rect width="32" height="24" fill="white"/>
<path fill-rule="evenodd" clip-rule="evenodd" d="M0 0V24H32V0H0Z" fill="#3195F9"/>
<mask id="mask0_270_67545" style="mask-type:luminance" maskUnits="userSpaceOnUse" x="0" y="0" width="32" height="24">
<path fill-rule="evenodd" clip-rule="evenodd" d="M0 0V24H32V0H0Z" fill="white"/>
</mask>
<g mask="url(#mask0_270_67545)">
<path fill-rule="evenodd" clip-rule="evenodd" d="M0 0V24L32 0H0Z" fill="#73BE4A"/>
<path d="M-1.82168 25.4392L-1.12772 26.4789L-0.0880487 25.7849L36.1729 1.58147L37.2126 0.887505L36.5186 -0.152167L34.2979 -3.47912L33.604 -4.51879L32.5643 -3.82483L-3.69665 20.3786L-4.73632 21.0726L-4.04236 22.1123L-1.82168 25.4392Z" fill="#272727" stroke="#FFD018" stroke-width="2.5"/>
</g>
</g>
<defs>
<clipPath id="clip0_270_67545">
<rect width="32" height="24" fill="white"/>
</clipPath>
</defs>
</svg>

<svg width="32" height="24" fill="none" xmlns="http://www.w3.org/2000/svg">
  <mask id="a" maskUnits="userSpaceOnUse" x="0" y="0" width="32" height="24">
    <path fill="#fff" d="M0 0h32v24H0z"/>
  </mask>
  <g mask="url(#a)">
    <path fill-rule="evenodd" clip-rule="evenodd" d="M0 0v24h32V0H0z" fill="#3195F9"/>
    <mask id="b" maskUnits="userSpaceOnUse" x="0" y="0" width="32" height="24">
      <path fill-rule="evenodd" clip-rule="evenodd" d="M0 0v24h32V0H0z" fill="#fff"/>
    </mask>
    <g mask="url(#b)">
      <path fill-rule="evenodd" clip-rule="evenodd" d="M0 0v24L32 0H0z" fill="#73BE4A"/>
      <path d="M-1.822 25.44l.694 1.039 1.04-.694L36.172 1.58l1.04-.693-.693-1.04-2.221-3.327-.694-1.04-1.04.694-36.26 24.204-1.04.694.694 1.04 2.22 3.326z" fill="#272727" stroke="#FFD018" stroke-width="2.5"/>
    </g>
  </g>
</svg>
